X: 32
T:Bung Your Eye
M:6/8
L:1/8
K:Am
E|"Am"ABA c2d|"Am"edc B2A|"G"GAG B2c|"G"dge dBG|!
"Am"ABA c2d|"Am"edc "G"Bcd|"Am"eAA "E7"AB^G|"Am"A3 A2:|!
||:B|"C"c2 e g2 a|"C"gec gec|"G"G2 B d2 e|"G"dge dBG|!
"C"c2 e g2 a|"C"gec "E7"de^g|"Am"aAA "E7"AB^G|"Am"A3 A2:|
